X:64
T:score154
L:1/16
Q:1/4=96
M:2/4
I:linebreak $
K:Emin
!p! z"_leggiero" (BcB eBcB) | (gBcB eBcB) | (gBcB eBcB) | (g2f2 e2^d2 |$ %4
 e)(BcB g"_cre    -     -     -     scen     -    -    -     do"BcB | A)(ABA fABA | G)(GAG eGAG | %7
 F)(FGF dFGF | E)(EFE cEFE) |$ (^DEDE FGAF) |"_dim.""^rit." (B2AG) (!trill(!TF2>E2) | %11
"^a tempo"!>(! E8!>)! |] %12
